X: 75
T: The Monaghan Jig
C:Jig
R:jig
M:6/8
K:Edor
"Em"BGE "D"F2E|"Em"BGE "D"FGA|"Em"BGE "D"F2E|AFD FGA|"Em"BGE "D"FGE|"Em"BGE "D"FGA|"G"dcB ABG|"D"FDF AFD:|
|:"Em"EGB efg|"D"fed "Em"edB|EGB "G"dAG|"D"FDF AFD|"Em"EGB efg|"D"fed "A"edc|"G"dcB ABG|"D"FDF AFD:|
|:"Em"g2e eBe|geg bge|~g2e ~e2g|"D"fdf afd|"Em"g2e eBe|geg bge|"G"dcB ABG|"D"FDF AFD:|
|:"Em"EGB eBG|BGE "D"FAF|"Em"EGB eBG|"D"~F3 AGF|"Em"EGB GBe|Beg egb|"G"dcB ABG|"D"FDF AFD:|


